assets/misc-grey/MiscGrey66.svg

<svg width="31" height="45" viewBox="0 0 31 45" fill="none" xmlns="http://www.w3.org/2000/svg">
<path fill-rule="evenodd" clip-rule="evenodd" d="M30.1 22.74C30.1 21.954 29.47 21.316 28.68 21.316C27.89 21.316 27.26 21.954 27.26 22.74C27.26 29.413 21.83 34.842 15.15 34.842C8.47996 34.842 3.04996 29.413 3.04996 22.74C3.04996 21.954 2.41996 21.316 1.62996 21.316C0.839961 21.316 0.209961 21.954 0.209961 22.74C0.209961 30.503 6.14996 36.897 13.73 37.618V41.652H7.00996C6.21996 41.652 5.57996 42.29 5.57996 43.076C5.57996 43.862 6.21996 44.5 7.00996 44.5H23.3C24.09 44.5 24.73 43.862 24.73 43.076C24.73 42.29 24.09 41.652 23.3 41.652H16.58V37.618C24.16 36.897 30.1 30.503 30.1 22.74ZM11.44 6.94403C11.44 5.02403 13 3.46403 14.92 3.46403H15.39C17.31 3.46403 18.87 5.02403 18.87 6.94403V23.649C18.87 25.568 17.31 27.129 15.39 27.129H14.92C13 27.129 11.44 25.568 11.44 23.649V6.94403ZM14.92 29.977H15.39C18.88 29.977 21.71 27.139 21.71 23.649V6.94403C21.71 3.45503 18.88 0.616028 15.39 0.616028H14.92C11.43 0.616028 8.58996 3.45503 8.58996 6.94403V23.649C8.58996 27.139 11.43 29.977 14.92 29.977Z" fill="#1A1919"/>
</svg>

<svg xmlns="http://www.w3.org/2000/svg" viewBox="0 0 31 45"><path fill-rule="evenodd" d="M30.1 22.74c0-.786-.63-1.424-1.42-1.424-.79 0-1.42.638-1.42 1.424 0 6.673-5.43 12.102-12.11 12.102-6.67 0-12.1-5.429-12.1-12.102 0-.786-.63-1.424-1.42-1.424-.79 0-1.42.638-1.42 1.424 0 7.763 5.94 14.157 13.52 14.878v4.034H7.01c-.79 0-1.43.638-1.43 1.424 0 .786.64 1.424 1.43 1.424H23.3c.79 0 1.43-.638 1.43-1.424 0-.786-.64-1.424-1.43-1.424h-6.72v-4.034c7.58-.721 13.52-7.115 13.52-14.878zM11.44 6.944c0-1.92 1.56-3.48 3.48-3.48h.47c1.92 0 3.48 1.56 3.48 3.48v16.705c0 1.919-1.56 3.48-3.48 3.48h-.47a3.483 3.483 0 01-3.48-3.48V6.944zm3.48 23.033h.47c3.49 0 6.32-2.838 6.32-6.328V6.944c0-3.489-2.83-6.328-6.32-6.328h-.47a6.337 6.337 0 00-6.33 6.328v16.705c0 3.49 2.84 6.328 6.33 6.328z" clip-rule="evenodd"/></svg>
